!!!OTL: Der Jaeger.
!!!OTL-incipit: SEH I EIN SCHOENS VOEGELEIN
!!!ARE: Europa, Mitteleuropa, Deutschland, Boehmen
!!!SCT: Z1295
!!!YEM: Copyright 1995, estate of Helmut Schaffrath.
**kern	**text
*ICvox	*
*M3/4	*
*k[b-e-a-]	*
*E-:	*
!LO:TX:a:t=Aus Böhmen.	!
!LO:TUP:a	!
{(12b-	Seh
12cc	i
12dd)	ein
=1	=1
(4ee-	ſchön's
4cc)	.
8a-	Vö-
8a-	-ge-
=2	=2
(4cc	-lein,
4b-)}	.
{(12B-L	ſieht
12e-J	.
12g)	wie
=3	=3
(4b-/	ei-
4a-)	.
4f	-ne
=4	=4
(4cc	Taub'n,
4b-)}	.
{(12b-L	hat
12ccJ	.
12dd)	ſchnee-
=5	=5
4ee-	-wei-
4cc	-ße
8a-	Fe-
8a-	-der-
=6	=6
(4cc	-lein
4b-)}	.
{(12B-L	und
12e-J	.
12g)	kohl-
=7	=7
(4b-/	-ſchwar-
4a-)	.
4d	-ʒe
=8	=8
4e-	Aug'n.
4r}	.
{(12B-L	La
12e-J	.
12g)	di
=9	=9
(4b-/	do
4a-)	.
8fL	di
8a-J	.
=10	=10
(4cc	da
4b-)}	.
{(12B-L	la-
12e-J	.
12g)	-di
=11	=11
(4b-/	do
4a-)	.
8fL	di
8a-J	.
=12	=12
(4cc	da!
4b-)}	.
({12b-L	hat
12ccJ	.
12dd)	ſchnee-
=13	=13
(4ee-	-weiße
4cc)	.
8a-	Fe-
8a-	-der-
=14	=14
(4cc	-lein
4b-)}	.
{(12B-L	und
12e-J	.
12g)	kohl-
=15	=15
(4b-/	-ſchwar-
4a-)	.
4d	-ʒe
=16	=16
4e-	Aug'n.
4r}	.
==	==
!!!AGN: Jaeger - Lied, Liebe
!!!ONB: ESAC (Essen Associative Code) Database: ZUCCAL
!!!AMT: simple triple
!!!AIN: vox
!!!EED: Helmut Schaffrath
!!!EEV: 1.0
!!!GTL: VII. Jagd-, Bunkt- und GewerksLieder.
!!!URL-scan: https://www.digitale-sammlungen.de/de/view/bsb11160573?page=538
!!!ENC: Anna Maria Matuszewska
!!!EEV: 2025/02/07
*-	*-
